public/images/icon-linkedin.svg

<svg width="97" height="91" viewBox="0 0 97 91" fill="none" xmlns="http://www.w3.org/2000/svg">
<path d="M20.5984 10.2291C20.5971 12.8876 19.5397 15.4368 17.6589 17.3157C15.7781 19.1946 13.2279 20.2495 10.5694 20.2482C7.91081 20.2468 5.36167 19.1894 3.48273 17.3086C1.60382 15.4278 0.548994 12.8776 0.550294 10.2191C0.551635 7.56052 1.60902 5.01138 3.48984 3.13244C5.37065 1.25353 7.92085 0.198702 10.5794 0.200002C13.2379 0.201343 15.7871 1.25873 17.666 3.13955C19.545 5.02036 20.5998 7.57055 20.5984 10.2291ZM20.8992 27.6708H0.851041V90.4214H20.8992V27.6708ZM52.5753 27.6708H32.6272V90.4214H52.3746V57.4924C52.3746 39.1486 76.282 37.4444 76.282 57.4924V90.4214H96.0798V50.6764C96.0798 19.752 60.6946 20.9047 52.3746 36.0912L52.5753 27.6708Z" fill="black"/>
</svg>

<svg width="97" height="91" fill="none" xmlns="http://www.w3.org/2000/svg"><path d="M20.598 10.23A10.024 10.024 0 1 1 .55 10.22a10.024 10.024 0 0 1 20.048.01Zm.301 17.44H.851v62.751h20.048v-62.75Zm31.676 0H32.627v62.751h19.748V57.492c0-18.343 23.907-20.048 23.907 0v32.93H96.08V50.675c0-30.924-35.385-29.771-43.705-14.585l.2-8.42Z" fill="#000"/></svg>
